X: 31357
T: Paddy O'Carroll
R: jig
M: 6/8
K: Dmajor
g/|fdd ecc|BdB AGF|fdA ecA|GBg f2a|
ffd ecA|BdG AGF|AFF dFF|D>ED D2:|

